svg/NEPAnode-EnergyInfrastructure/NaturalGas.svg

<?xml version="1.0" encoding="UTF-8" standalone="no"?>
<!-- Created with Inkscape (http://www.inkscape.org/) -->

<svg
   xmlns:dc="http://purl.org/dc/elements/1.1/"
   xmlns:cc="http://creativecommons.org/ns#"
   xmlns:rdf="http://www.w3.org/1999/02/22-rdf-syntax-ns#"
   xmlns:svg="http://www.w3.org/2000/svg"
   xmlns="http://www.w3.org/2000/svg"
   xmlns:sodipodi="http://sodipodi.sourceforge.net/DTD/sodipodi-0.dtd"
   xmlns:inkscape="http://www.inkscape.org/namespaces/inkscape"
   version="1.1"
   width="250"
   height="250"
   viewBox="0 0 0.34722222 0.34722222"
   id="svg2"
   inkscape:version="0.48.4 r9939"
   sodipodi:docname="NaturalGas.svg">
  <sodipodi:namedview
     pagecolor="#ffffff"
     bordercolor="#666666"
     borderopacity="1"
     objecttolerance="10"
     gridtolerance="10"
     guidetolerance="10"
     inkscape:pageopacity="0"
     inkscape:pageshadow="2"
     inkscape:window-width="1360"
     inkscape:window-height="744"
     id="namedview9"
     showgrid="false"
     inkscape:zoom="0.944"
     inkscape:cx="125"
     inkscape:cy="125"
     inkscape:window-x="0"
     inkscape:window-y="24"
     inkscape:window-maximized="1"
     inkscape:current-layer="svg2" />
  <title
     id="title4">SVG drawing</title>
  <desc
     id="desc6">This was produced by version 4.1 of GNU libplot, a free library for exporting 2-D vector graphics.</desc>
  <metadata
     id="metadata3395">
    <rdf:RDF>
      <cc:Work
         rdf:about="">
        <dc:format>image/svg+xml</dc:format>
        <dc:type
           rdf:resource="http://purl.org/dc/dcmitype/StillImage" />
        <dc:title>SVG drawing</dc:title>
      </cc:Work>
    </rdf:RDF>
  </metadata>
  <defs
     id="defs3393" />
  <g
     style="font-size:0.0555556px;font-style:normal;font-variant:normal;font-weight:normal;font-stretch:normal;line-height:125%;letter-spacing:0px;word-spacing:0px;fill:#000000;fill-opacity:1;stroke:none;font-family:Energy Infrastructure;-inkscape-font-specification:Energy Infrastructure"
     id="text7140">
    <path
       d="M 0.17455524,0.00313689 C 0.19816952,0.00313723 0.22040649,0.00766334 0.24126622,0.01671523 0.2621254,0.02576777 0.28022984,0.03796859 0.29557958,0.05331771 0.31092866,0.06866741 0.32312948,0.08677185 0.33218206,0.10763107 0.34123391,0.12849076 0.34576002,0.15072773 0.3457604,0.17434204 0.34576002,0.19795669 0.34123391,0.22019366 0.33218206,0.24105302 0.32312948,0.26191258 0.31092866,0.28001702 0.29557958,0.29536638 0.28022984,0.31071584 0.2621254,0.32291666 0.24126622,0.33196886 0.22040649,0.34102109 0.19816952,0.3455472 0.17455524,0.3455472 0.15094056,0.3455472 0.12870359,0.34102109 0.10784427,0.33196886 0.08698467,0.32291666 0.06888024,0.31071584 0.05353091,0.29536638 0.03818141,0.28001702 0.0259806,0.26191258 0.01692843,0.24105302 0.00787616,0.22019366 0.00335005,0.19795669 0.00335009,0.17434204 0.00335005,0.15072773 0.00787616,0.12849076 0.01692843,0.10763107 0.0259806,0.08677185 0.03818141,0.06866741 0.05353091,0.05331771 0.06888024,0.03796859 0.08698467,0.02576777 0.10784427,0.01671523 0.12870359,0.00766334 0.15094056,0.00313723 0.17455524,0.00313689 M 0.24776021,0.24695664 C 0.25012138,0.23869167 0.25071174,0.23022982 0.2495313,0.22157105 0.24835029,0.21291253 0.24618563,0.20445068 0.24303731,0.19618546 0.24028201,0.18752697 0.23673984,0.1792619 0.23241078,0.17139023 0.22847477,0.16312534 0.2249326,0.15525384 0.22178425,0.14777573 0.2186354,0.13951085 0.21568359,0.13124579 0.21292881,0.1229805 0.21056712,0.11432208 0.20977997,0.10546665 0.21056736,0.09641418 0.2109607,0.08814936 0.21312536,0.0796875 0.21706135,0.07102859 0.21784825,0.06945456 0.21883219,0.06768348 0.22001317,0.06571532 0.22158721,0.06374773 0.22198079,0.06177986 0.22119389,0.0598117 0.22040649,0.05784411 0.21902898,0.05666339 0.21706135,0.05626952 0.2154868,0.05587624 0.21410929,0.05666339 0.21292881,0.05863097 0.21332214,0.05823768 0.21371572,0.05764732 0.21410954,0.05685988 0.21489644,0.05567945 0.21450287,0.05626981 0.21292881,0.05863097 0.21056712,0.06296058 0.20741852,0.06689633 0.20348301,0.07043822 0.1999406,0.07398067 0.19659522,0.07752284 0.19344685,0.08106475 0.18990445,0.08539434 0.18655907,0.08952687 0.18341068,0.09346237 0.18026187,0.09700479 0.17711327,0.10094054 0.17396488,0.10526962 0.16727391,0.11353493 0.15999277,0.12160321 0.15212147,0.12947448 0.14464336,0.13734619 0.13755902,0.14541448 0.13086841,0.15367935 0.12575178,0.15997674 0.12083209,0.16706108 0.11610935,0.17493241 0.11177988,0.18241049 0.10804092,0.19047878 0.10489246,0.19913727 0.1021373,0.20740249 0.10016942,0.21586434 0.09898883,0.22452286 0.09780798,0.23318163 0.09820155,0.24164348 0.10016956,0.24990846 0.10174372,0.25659932 0.10410517,0.26329009 0.10725391,0.26998079 0.11079594,0.27627806 0.11551884,0.28159131 0.12142261,0.28592058 0.1269325,0.28946281 0.13342648,0.29143068 0.14090458,0.2918242 0.1487759,0.29221783 0.1548763,0.28906923 0.15920582,0.2823784 0.16156707,0.27804914 0.16215744,0.27391661 0.1609769,0.26998079 0.16018956,0.26565154 0.15841848,0.26151901 0.15566364,0.25758317 0.15290843,0.25364751 0.14995662,0.24971176 0.1468082,0.24577592 0.144053,0.24184027 0.14208513,0.23770774 0.14090458,0.2333783 0.13972368,0.22944267 0.13972368,0.22531013 0.14090458,0.22098069 0.14208513,0.21625792 0.14385621,0.21173181 0.14621784,0.20740235 0.14897268,0.20307317 0.15192449,0.19894063 0.15507328,0.19500473 0.15861526,0.19106914 0.16196065,0.18772375 0.16510944,0.18496857 0.16550282,0.1900852 0.16688033,0.1948081 0.16924198,0.19913727 0.17160323,0.20346674 0.17416146,0.20779606 0.17691669,0.21212525 0.17967151,0.21606113 0.18222974,0.22019366 0.18459141,0.22452286 0.18695264,0.22885231 0.18852694,0.2335752 0.18931431,0.23869157 0.19049481,0.24695674 0.18951088,0.25522181 0.1863625,0.2634868 0.18518155,0.26663548 0.18282011,0.27037444 0.17927815,0.27470369 0.17612934,0.2786395 0.17494861,0.28218168 0.17573597,0.28533021 0.17691649,0.2880853 0.1798683,0.28965959 0.18459141,0.29005311 0.18970766,0.29005317 0.19344662,0.29005317 0.1958083,0.29005311 0.19974382,0.28965959 0.20348278,0.28887245 0.20702519,0.28769166 0.2109607,0.286511 0.21450287,0.2849367 0.21765171,0.28296876 0.22434223,0.27903308 0.23044264,0.2741134 0.23595296,0.2682097 0.24185631,0.26191258 0.24579205,0.25482824 0.24776021,0.24695664 M 0.21292881,0.05863097 C 0.21332214,0.05823768 0.21371572,0.05764732 0.21410954,0.05685988 0.21489644,0.05567945 0.21450287,0.05626981 0.21292881,0.05863097"
       style="font-size:0.59036261px"
       id="path2987" />
  </g>
</svg>

<svg xmlns="http://www.w3.org/2000/svg" width="250" height="250" viewBox="0 0 0.34722222 0.34722222"><path d="m.175.003c.024 0 .046.005.067.014.021.009.039.021.054.037.015.015.028.033.037.054.009.021.014.043.014.067 0 .024-.005.046-.014.067-.009.021-.021.039-.037.054-.015.015-.033.028-.054.037-.021.009-.043.014-.067.014-.024 0-.046-.005-.067-.014-.021-.009-.039-.021-.054-.037-.015-.015-.028-.033-.037-.054-.009-.021-.014-.043-.014-.067 0-.024.005-.046.014-.067.009-.021.021-.039.037-.054.015-.015.033-.028.054-.037.021-.009.043-.014.067-.014m.073.244c.002-.008.003-.017.002-.025-.0001-.009-.003-.017-.006-.025-.003-.009-.006-.017-.011-.025-.004-.008-.007-.016-.011-.024-.003-.008-.006-.017-.009-.025-.002-.009-.003-.018-.002-.027 0-.008.003-.017.006-.025.0001-.002.002-.003.003-.005.002-.002.002-.004.0001-.006-.0001-.002-.002-.003-.004-.004-.002 0-.003 0-.004.002 0 0 .0001-.0001.0001-.002.0001-.0001 0-.0001-.0001.002-.002.004-.006.008-.009.012-.004.004-.007.007-.001.011-.004.004-.007.008-.001.012-.003.004-.006.007-.009.012-.007.008-.014.016-.022.024-.007.008-.015.016-.021.024-.005.006-.001.013-.015.021-.004.007-.008.016-.011.024-.003.008-.005.017-.006.025-.0001.009-.0001.017.0001.025.002.007.004.013.007.02.004.006.008.012.014.016.006.004.012.006.019.006.008 0 .014-.003.018-.009.002-.004.003-.008.002-.012-.0001-.004-.003-.008-.005-.012-.003-.004-.006-.008-.009-.012-.003-.004-.005-.008-.006-.012-.0001-.004-.0001-.008 0-.012.0001-.005.003-.009.005-.014.003-.004.006-.008.009-.012.004-.004.007-.007.001-.001 0 .005.002.001.004.014.002.004.005.009.008.013.003.004.005.008.008.012.002.004.004.009.005.014.0001.008 0 .017-.003.025-.0001.003-.004.007-.007.011-.003.004-.004.007-.004.011.0001.003.004.004.009.005.005 0 .009 0 .011 0 .004 0 .008-.0001.011-.002.004-.0001.007-.003.011-.005.007-.004.013-.009.018-.015.006-.006.001-.013.012-.021m-.035-.188c0 0 .0001-.0001.0001-.002.0001-.0001 0-.0001-.0001.002"/></svg>
